img/del1.svg

<svg width="26" height="26" viewBox="0 0 26 26" fill="none" xmlns="http://www.w3.org/2000/svg">
<path d="M20.9769 7.25586H5.01893C4.53602 7.25586 4.14453 7.6473 4.14453 8.13017V21.789C4.14453 24.1107 6.0334 25.9994 8.35487 25.9994H17.6407C19.9623 25.9994 21.8511 24.1107 21.8511 21.789V8.13017C21.8512 7.64735 21.4598 7.25586 20.9769 7.25586ZM10.896 20.7333C10.896 21.3265 10.4151 21.8074 9.82175 21.8074C9.22863 21.8074 8.74751 21.3265 8.74751 20.7333V12.5219C8.74751 11.9287 9.22855 11.4478 9.82175 11.4478C10.415 11.4478 10.896 11.9287 10.896 12.5219V20.7333ZM17.2482 20.7333C17.2482 21.3265 16.7673 21.8074 16.1739 21.8074C15.5808 21.8074 15.0997 21.3265 15.0997 20.7333V12.5219C15.0997 11.9287 15.5807 11.4478 16.1739 11.4478C16.7672 11.4478 17.2482 11.9287 17.2482 12.5219V20.7333Z" fill="#A7AAB2"/>
<path d="M20.1012 1.36041H16.2924V1.0301C16.2924 0.462095 15.8303 0 15.2624 0H10.734C10.166 0 9.70391 0.462095 9.70391 1.0301V1.36041H5.89507C4.43661 1.36041 3.25 2.54694 3.25 4.00544V5.70156C3.25 6.00489 3.4959 6.25083 3.79936 6.25083H22.1971C22.5003 6.25083 22.7463 6.00489 22.7463 5.70156V4.00544C22.7463 2.54698 21.5597 1.36041 20.1012 1.36041Z" fill="#A7AAB2"/>
</svg>

<svg width="26" height="26" fill="none" xmlns="http://www.w3.org/2000/svg"><path d="M20.977 7.256H5.019a.874.874 0 00-.874.874v13.66A4.215 4.215 0 008.355 26h9.286a4.215 4.215 0 004.21-4.21V8.13a.874.874 0 00-.874-.874zM10.896 20.733a1.074 1.074 0 01-2.148 0v-8.211a1.074 1.074 0 012.148 0v8.211zm6.352 0a1.074 1.074 0 01-2.148 0v-8.211a1.074 1.074 0 012.148 0v8.211zM20.101 1.36h-3.809v-.33c0-.568-.462-1.03-1.03-1.03h-4.528c-.568 0-1.03.462-1.03 1.03v.33H5.895A2.648 2.648 0 003.25 4.005v1.697a.55.55 0 00.55.549h18.397a.55.55 0 00.55-.55V4.006A2.648 2.648 0 0020.1 1.36z" fill="#A7AAB2"/></svg>
